storage/app/icons/tabler/filled/alert-hexagon.svg

<!--
version: "2.15"
unicode: "fa34"
-->
<svg
  xmlns="http://www.w3.org/2000/svg"
  width="24"
  height="24"
  viewBox="0 0 24 24"
  fill="currentColor"
>
  <path d="M10.425 1.414a3.33 3.33 0 0 1 3.026 -.097l.19 .097l6.775 3.995l.096 .063l.092 .077l.107 .075a3.224 3.224 0 0 1 1.266 2.188l.018 .202l.005 .204v7.284c0 1.106 -.57 2.129 -1.454 2.693l-.17 .1l-6.803 4.302c-.918 .504 -2.019 .535 -3.004 .068l-.196 -.1l-6.695 -4.237a3.225 3.225 0 0 1 -1.671 -2.619l-.007 -.207v-7.285c0 -1.106 .57 -2.128 1.476 -2.705l6.95 -4.098zm1.585 13.586l-.127 .007a1 1 0 0 0 0 1.986l.117 .007l.127 -.007a1 1 0 0 0 0 -1.986l-.117 -.007zm-.01 -8a1 1 0 0 0 -.993 .883l-.007 .117v4l.007 .117a1 1 0 0 0 1.986 0l.007 -.117v-4l-.007 -.117a1 1 0 0 0 -.993 -.883z" />
</svg>

<svg xmlns="http://www.w3.org/2000/svg" width="24" height="24" fill="currentColor" viewBox="0 0 24 24"><path d="M10.425 1.414a3.33 3.33 0 0 1 3.026-.097l.19.097 6.775 3.995.096.063.092.077.107.075a3.22 3.22 0 0 1 1.266 2.188l.018.202.005.204v7.284c0 1.106-.57 2.129-1.454 2.693l-.17.1-6.803 4.302c-.918.504-2.019.535-3.004.068l-.196-.1-6.695-4.237a3.23 3.23 0 0 1-1.671-2.619L2 15.502V8.217c0-1.106.57-2.128 1.476-2.705zM12.01 15l-.127.007a1 1 0 0 0 0 1.986L12 17l.127-.007a1 1 0 0 0 0-1.986zM12 7a1 1 0 0 0-.993.883L11 8v4l.007.117a1 1 0 0 0 1.986 0L13 12V8l-.007-.117A1 1 0 0 0 12 7"/></svg>
